src/4-icons/notebook.svg

<svg width="260" height="260" viewBox="0 0 260 260" fill="none" xmlns="http://www.w3.org/2000/svg">
<g opacity="0.9">
<path d="M239.2 20.8001H21.5018V130H239.2V20.8001Z" fill="black"/>
<path d="M36.9201 162.682H23.4001C21.9701 162.682 20.8001 161.512 20.8001 160.082V153.4C20.8001 151.97 21.9701 150.8 23.4001 150.8H36.9201C38.3501 150.8 39.5201 151.97 39.5201 153.4V160.082C39.5201 161.512 38.3501 162.682 36.9201 162.682Z" fill="black"/>
<path d="M23.4001 194.402H36.9201C38.3501 194.402 39.5201 193.232 39.5201 191.802V185.12C39.5201 183.69 38.3501 182.52 36.9201 182.52H23.4001C21.9701 182.52 20.8001 183.69 20.8001 185.12V191.802C20.8001 193.232 21.9701 194.402 23.4001 194.402Z" fill="black"/>
<path d="M55.6401 198.355C57.0701 198.355 58.2401 199.525 58.2401 200.955V207.636C58.2401 209.066 57.0701 210.236 55.6401 210.236H23.4001C21.9701 210.236 20.8001 209.066 20.8001 207.636V200.955C20.8001 199.525 21.9701 198.355 23.4001 198.355H55.6401Z" fill="black"/>
<path d="M204.36 198.355H236.6C238.03 198.355 239.2 199.525 239.2 200.955V207.636C239.2 209.066 238.03 210.236 236.6 210.236H204.36C202.93 210.236 201.76 209.066 201.76 207.636V200.955C201.76 199.525 202.93 198.355 204.36 198.355Z" fill="black"/>
<path d="M170.585 214.162H89.4147C87.9847 214.162 86.8147 215.332 86.8147 216.762V238.16C86.8147 239.59 87.9847 240.76 89.4147 240.76H170.56C171.99 240.76 173.16 239.59 173.16 238.16V216.762C173.185 215.332 172.016 214.162 170.585 214.162Z" fill="black"/>
<path d="M67.0801 198.355H192.92C194.35 198.355 195.52 199.525 195.52 200.955V207.636C195.52 209.066 194.35 210.236 192.92 210.236H67.0801C65.6501 210.236 64.4801 209.066 64.4801 207.636V200.955C64.4801 199.525 65.6501 198.355 67.0801 198.355Z" fill="black"/>
<path d="M61.88 182.52C63.31 182.52 64.48 183.69 64.48 185.12V191.802C64.48 193.232 63.31 194.402 61.88 194.402H48.36C46.93 194.402 45.76 193.232 45.76 191.802V185.12C45.76 183.69 46.93 182.52 48.36 182.52H61.88Z" fill="black"/>
<path d="M73.3202 194.402H86.8401C88.2701 194.402 89.4402 193.232 89.4402 191.802V185.12C89.4402 183.69 88.2701 182.52 86.8401 182.52H73.3202C71.8902 182.52 70.7202 183.69 70.7202 185.12V191.802C70.7202 193.232 71.8902 194.402 73.3202 194.402Z" fill="black"/>
<path d="M111.8 194.402H98.2801C96.8501 194.402 95.6801 193.232 95.6801 191.802V185.12C95.6801 183.69 96.8501 182.52 98.2801 182.52H111.8C113.23 182.52 114.4 183.69 114.4 185.12V191.802C114.4 193.232 113.23 194.402 111.8 194.402Z" fill="black"/>
<path d="M123.24 194.402H136.76C138.19 194.402 139.36 193.232 139.36 191.802V185.12C139.36 183.69 138.19 182.52 136.76 182.52H123.24C121.81 182.52 120.64 183.69 120.64 185.12V191.802C120.64 193.232 121.81 194.402 123.24 194.402Z" fill="black"/>
<path d="M161.72 194.402H148.2C146.77 194.402 145.6 193.232 145.6 191.802V185.12C145.6 183.69 146.77 182.52 148.2 182.52H161.72C163.15 182.52 164.32 183.69 164.32 185.12V191.802C164.32 193.232 163.15 194.402 161.72 194.402Z" fill="black"/>
<path d="M173.16 194.402H186.68C188.11 194.402 189.28 193.232 189.28 191.802V185.12C189.28 183.69 188.11 182.52 186.68 182.52H173.16C171.73 182.52 170.56 183.69 170.56 185.12V191.802C170.56 193.232 171.73 194.402 173.16 194.402Z" fill="black"/>
<path d="M214.24 185.12V191.802C214.24 193.232 213.07 194.402 211.64 194.402H198.12C196.69 194.402 195.52 193.232 195.52 191.802V185.12C195.52 183.69 196.69 182.52 198.12 182.52H211.64C213.07 182.52 214.24 183.69 214.24 185.12Z" fill="black"/>
<path d="M236.6 182.52H223.08C221.65 182.52 220.48 183.69 220.48 185.12V191.802C220.48 193.232 221.65 194.402 223.08 194.402H236.6C238.03 194.402 239.2 193.232 239.2 191.802V185.12C239.2 183.69 238.03 182.52 236.6 182.52Z" fill="black"/>
<path d="M48.36 162.682H61.88C63.31 162.682 64.48 161.512 64.48 160.082V153.4C64.48 151.97 63.31 150.8 61.88 150.8H48.36C46.93 150.8 45.76 151.97 45.76 153.4V160.082C45.76 161.512 46.93 162.682 48.36 162.682Z" fill="black"/>
<path d="M86.8401 162.682H73.3202C71.8902 162.682 70.7202 161.512 70.7202 160.082V153.4C70.7202 151.97 71.8902 150.8 73.3202 150.8H86.8401C88.2701 150.8 89.4402 151.97 89.4402 153.4V160.082C89.4402 161.512 88.2701 162.682 86.8401 162.682Z" fill="black"/>
<path d="M98.2801 162.682H111.8C113.23 162.682 114.4 161.512 114.4 160.082V153.4C114.4 151.97 113.23 150.8 111.8 150.8H98.2801C96.8501 150.8 95.6801 151.97 95.6801 153.4V160.082C95.6801 161.512 96.8501 162.682 98.2801 162.682Z" fill="black"/>
<path d="M136.76 162.682H123.24C121.81 162.682 120.64 161.512 120.64 160.082V153.4C120.64 151.97 121.81 150.8 123.24 150.8H136.76C138.19 150.8 139.36 151.97 139.36 153.4V160.082C139.36 161.512 138.19 162.682 136.76 162.682Z" fill="black"/>
<path d="M148.2 162.682H161.72C163.15 162.682 164.32 161.512 164.32 160.082V153.4C164.32 151.97 163.15 150.8 161.72 150.8H148.2C146.77 150.8 145.6 151.97 145.6 153.4V160.082C145.6 161.512 146.77 162.682 148.2 162.682Z" fill="black"/>
<path d="M186.68 162.682H173.16C171.73 162.682 170.56 161.512 170.56 160.082V153.4C170.56 151.97 171.73 150.8 173.16 150.8H186.68C188.11 150.8 189.28 151.97 189.28 153.4V160.082C189.28 161.512 188.11 162.682 186.68 162.682Z" fill="black"/>
<path d="M198.12 162.682H211.64C213.07 162.682 214.24 161.512 214.24 160.082V153.4C214.24 151.97 213.07 150.8 211.64 150.8H198.12C196.69 150.8 195.52 151.97 195.52 153.4V160.082C195.52 161.512 196.69 162.682 198.12 162.682Z" fill="black"/>
<path d="M223.08 150.8H236.6C238.03 150.8 239.2 151.97 239.2 153.4V160.082C239.2 161.512 238.03 162.682 236.6 162.682H223.08C221.65 162.682 220.48 161.512 220.48 160.082V153.4C220.48 151.97 221.65 150.8 223.08 150.8Z" fill="black"/>
<path d="M23.4001 178.542H49.4001C50.8301 178.542 52.0001 177.372 52.0001 175.942V169.26C52.0001 167.83 50.8301 166.66 49.4001 166.66H23.4001C21.9701 166.66 20.8001 167.83 20.8001 169.26V175.942C20.8001 177.372 21.9701 178.542 23.4001 178.542Z" fill="black"/>
<path d="M76.9601 169.26V175.942C76.9601 177.372 75.7901 178.542 74.3601 178.542H60.8401C59.4101 178.542 58.2401 177.372 58.2401 175.942V169.26C58.2401 167.83 59.4101 166.66 60.8401 166.66H74.3601C75.7901 166.66 76.9601 167.83 76.9601 169.26Z" fill="black"/>
<path d="M101.92 175.942V169.26C101.92 167.83 100.75 166.66 99.32 166.66H85.8C84.37 166.66 83.2 167.83 83.2 169.26V175.942C83.2 177.372 84.37 178.542 85.8 178.542H99.32C100.75 178.542 101.92 177.372 101.92 175.942Z" fill="black"/>
<path d="M126.88 169.26V175.942C126.88 177.372 125.71 178.542 124.28 178.542H110.76C109.33 178.542 108.16 177.372 108.16 175.942V169.26C108.16 167.83 109.33 166.66 110.76 166.66H124.28C125.71 166.66 126.88 167.83 126.88 169.26Z" fill="black"/>
<path d="M151.84 175.942V169.26C151.84 167.83 150.67 166.66 149.24 166.66H135.72C134.29 166.66 133.12 167.83 133.12 169.26V175.942C133.12 177.372 134.29 178.542 135.72 178.542H149.24C150.67 178.542 151.84 177.372 151.84 175.942Z" fill="black"/>
<path d="M176.8 169.26V175.942C176.8 177.372 175.63 178.542 174.2 178.542H160.68C159.25 178.542 158.08 177.372 158.08 175.942V169.26C158.08 167.83 159.25 166.66 160.68 166.66H174.2C175.63 166.66 176.8 167.83 176.8 169.26Z" fill="black"/>
<path d="M201.76 175.942V169.26C201.76 167.83 200.59 166.66 199.16 166.66H185.64C184.21 166.66 183.04 167.83 183.04 169.26V175.942C183.04 177.372 184.21 178.542 185.64 178.542H199.16C200.59 178.542 201.76 177.372 201.76 175.942Z" fill="black"/>
<path d="M210.6 166.66H236.6C238.03 166.66 239.2 167.83 239.2 169.26V175.942C239.2 177.372 238.03 178.542 236.6 178.542H210.6C209.17 178.542 208 177.372 208 175.942V169.26C208 167.83 209.17 166.66 210.6 166.66Z" fill="black"/>
<path fill-rule="evenodd" clip-rule="evenodd" d="M239.2 5.2002H20.8002C12.1948 5.2266 5.22559 12.1938 5.2002 20.8002V239.2C5.2266 247.807 12.1938 254.774 20.8002 254.8H239.2C247.807 254.775 254.774 247.806 254.8 239.2V20.8002C254.775 12.1948 247.806 5.22559 239.2 5.2002ZM15.6002 20.8002C15.6002 19.3702 16.172 18.0956 17.1348 17.1338C18.0976 16.172 19.3702 15.5992 20.8012 15.5992H239.201C240.631 15.5992 241.905 16.171 242.867 17.1338C243.828 18.0966 244.401 19.3692 244.401 20.8002V136.5H15.6012V20.8002H15.6002ZM242.867 242.867C241.905 243.828 240.63 244.401 239.201 244.401H20.8012C19.3712 244.401 18.0966 243.829 17.1348 242.867C16.173 241.904 15.6002 240.63 15.6002 239.201V144.301H244.4V239.201C244.4 240.631 243.828 241.905 242.866 242.867H242.867Z" fill="black"/>
</g>
</svg>

<svg width="260" height="260" fill="none" xmlns="http://www.w3.org/2000/svg"><g opacity=".9" fill="#000"><path d="M239.2 20.8H21.502V130H239.2V20.8ZM36.92 162.682H23.4c-1.43 0-2.6-1.17-2.6-2.6V153.4c0-1.43 1.17-2.6 2.6-2.6h13.52c1.43 0 2.6 1.17 2.6 2.6v6.682c0 1.43-1.17 2.6-2.6 2.6Zm-13.52 31.72h13.52c1.43 0 2.6-1.17 2.6-2.6v-6.682c0-1.43-1.17-2.6-2.6-2.6H23.4c-1.43 0-2.6 1.17-2.6 2.6v6.682c0 1.43 1.17 2.6 2.6 2.6Zm32.24 3.953c1.43 0 2.6 1.17 2.6 2.6v6.681c0 1.43-1.17 2.6-2.6 2.6H23.4c-1.43 0-2.6-1.17-2.6-2.6v-6.681c0-1.43 1.17-2.6 2.6-2.6h32.24Zm148.72 0h32.24c1.43 0 2.6 1.17 2.6 2.6v6.681c0 1.43-1.17 2.6-2.6 2.6h-32.24c-1.43 0-2.6-1.17-2.6-2.6v-6.681c0-1.43 1.17-2.6 2.6-2.6Zm-33.775 15.807h-81.17c-1.43 0-2.6 1.17-2.6 2.6v21.398c0 1.43 1.17 2.6 2.6 2.6h81.145c1.43 0 2.6-1.17 2.6-2.6v-21.398c.025-1.43-1.144-2.6-2.575-2.6ZM67.08 198.355h125.84c1.43 0 2.6 1.17 2.6 2.6v6.681c0 1.43-1.17 2.6-2.6 2.6H67.08c-1.43 0-2.6-1.17-2.6-2.6v-6.681c0-1.43 1.17-2.6 2.6-2.6Zm-5.2-15.835c1.43 0 2.6 1.17 2.6 2.6v6.682c0 1.43-1.17 2.6-2.6 2.6H48.36c-1.43 0-2.6-1.17-2.6-2.6v-6.682c0-1.43 1.17-2.6 2.6-2.6h13.52Zm11.44 11.882h13.52c1.43 0 2.6-1.17 2.6-2.6v-6.682c0-1.43-1.17-2.6-2.6-2.6H73.32c-1.43 0-2.6 1.17-2.6 2.6v6.682c0 1.43 1.17 2.6 2.6 2.6Zm38.48 0H98.28c-1.43 0-2.6-1.17-2.6-2.6v-6.682c0-1.43 1.17-2.6 2.6-2.6h13.52c1.43 0 2.6 1.17 2.6 2.6v6.682c0 1.43-1.17 2.6-2.6 2.6Zm11.44 0h13.52c1.43 0 2.6-1.17 2.6-2.6v-6.682c0-1.43-1.17-2.6-2.6-2.6h-13.52c-1.43 0-2.6 1.17-2.6 2.6v6.682c0 1.43 1.17 2.6 2.6 2.6Zm38.48 0H148.2c-1.43 0-2.6-1.17-2.6-2.6v-6.682c0-1.43 1.17-2.6 2.6-2.6h13.52c1.43 0 2.6 1.17 2.6 2.6v6.682c0 1.43-1.17 2.6-2.6 2.6Zm11.44 0h13.52c1.43 0 2.6-1.17 2.6-2.6v-6.682c0-1.43-1.17-2.6-2.6-2.6h-13.52c-1.43 0-2.6 1.17-2.6 2.6v6.682c0 1.43 1.17 2.6 2.6 2.6Zm41.08-9.282v6.682c0 1.43-1.17 2.6-2.6 2.6h-13.52c-1.43 0-2.6-1.17-2.6-2.6v-6.682c0-1.43 1.17-2.6 2.6-2.6h13.52c1.43 0 2.6 1.17 2.6 2.6Zm22.36-2.6h-13.52c-1.43 0-2.6 1.17-2.6 2.6v6.682c0 1.43 1.17 2.6 2.6 2.6h13.52c1.43 0 2.6-1.17 2.6-2.6v-6.682c0-1.43-1.17-2.6-2.6-2.6ZM48.36 162.682h13.52c1.43 0 2.6-1.17 2.6-2.6V153.4c0-1.43-1.17-2.6-2.6-2.6H48.36c-1.43 0-2.6 1.17-2.6 2.6v6.682c0 1.43 1.17 2.6 2.6 2.6Zm38.48 0H73.32c-1.43 0-2.6-1.17-2.6-2.6V153.4c0-1.43 1.17-2.6 2.6-2.6h13.52c1.43 0 2.6 1.17 2.6 2.6v6.682c0 1.43-1.17 2.6-2.6 2.6Zm11.44 0h13.52c1.43 0 2.6-1.17 2.6-2.6V153.4c0-1.43-1.17-2.6-2.6-2.6H98.28c-1.43 0-2.6 1.17-2.6 2.6v6.682c0 1.43 1.17 2.6 2.6 2.6Zm38.48 0h-13.52c-1.43 0-2.6-1.17-2.6-2.6V153.4c0-1.43 1.17-2.6 2.6-2.6h13.52c1.43 0 2.6 1.17 2.6 2.6v6.682c0 1.43-1.17 2.6-2.6 2.6Zm11.44 0h13.52c1.43 0 2.6-1.17 2.6-2.6V153.4c0-1.43-1.17-2.6-2.6-2.6H148.2c-1.43 0-2.6 1.17-2.6 2.6v6.682c0 1.43 1.17 2.6 2.6 2.6Zm38.48 0h-13.52c-1.43 0-2.6-1.17-2.6-2.6V153.4c0-1.43 1.17-2.6 2.6-2.6h13.52c1.43 0 2.6 1.17 2.6 2.6v6.682c0 1.43-1.17 2.6-2.6 2.6Zm11.44 0h13.52c1.43 0 2.6-1.17 2.6-2.6V153.4c0-1.43-1.17-2.6-2.6-2.6h-13.52c-1.43 0-2.6 1.17-2.6 2.6v6.682c0 1.43 1.17 2.6 2.6 2.6Zm24.96-11.882h13.52c1.43 0 2.6 1.17 2.6 2.6v6.682c0 1.43-1.17 2.6-2.6 2.6h-13.52c-1.43 0-2.6-1.17-2.6-2.6V153.4c0-1.43 1.17-2.6 2.6-2.6ZM23.4 178.542h26c1.43 0 2.6-1.17 2.6-2.6v-6.682c0-1.43-1.17-2.6-2.6-2.6h-26c-1.43 0-2.6 1.17-2.6 2.6v6.682c0 1.43 1.17 2.6 2.6 2.6Zm53.56-9.282v6.682c0 1.43-1.17 2.6-2.6 2.6H60.84c-1.43 0-2.6-1.17-2.6-2.6v-6.682c0-1.43 1.17-2.6 2.6-2.6h13.52c1.43 0 2.6 1.17 2.6 2.6Zm24.96 6.682v-6.682c0-1.43-1.17-2.6-2.6-2.6H85.8c-1.43 0-2.6 1.17-2.6 2.6v6.682c0 1.43 1.17 2.6 2.6 2.6h13.52c1.43 0 2.6-1.17 2.6-2.6Zm24.96-6.682v6.682c0 1.43-1.17 2.6-2.6 2.6h-13.52c-1.43 0-2.6-1.17-2.6-2.6v-6.682c0-1.43 1.17-2.6 2.6-2.6h13.52c1.43 0 2.6 1.17 2.6 2.6Zm24.96 6.682v-6.682c0-1.43-1.17-2.6-2.6-2.6h-13.52c-1.43 0-2.6 1.17-2.6 2.6v6.682c0 1.43 1.17 2.6 2.6 2.6h13.52c1.43 0 2.6-1.17 2.6-2.6Zm24.96-6.682v6.682c0 1.43-1.17 2.6-2.6 2.6h-13.52c-1.43 0-2.6-1.17-2.6-2.6v-6.682c0-1.43 1.17-2.6 2.6-2.6h13.52c1.43 0 2.6 1.17 2.6 2.6Zm24.96 6.682v-6.682c0-1.43-1.17-2.6-2.6-2.6h-13.52c-1.43 0-2.6 1.17-2.6 2.6v6.682c0 1.43 1.17 2.6 2.6 2.6h13.52c1.43 0 2.6-1.17 2.6-2.6Zm8.84-9.282h26c1.43 0 2.6 1.17 2.6 2.6v6.682c0 1.43-1.17 2.6-2.6 2.6h-26c-1.43 0-2.6-1.17-2.6-2.6v-6.682c0-1.43 1.17-2.6 2.6-2.6Z"/><path fill-rule="evenodd" clip-rule="evenodd" d="M239.2 5.2H20.8c-8.605.027-15.574 6.994-15.6 15.6v218.4c.027 8.607 6.994 15.574 15.6 15.6h218.4c8.607-.025 15.574-6.994 15.6-15.6V20.8c-.025-8.605-6.994-15.574-15.6-15.6ZM15.6 20.8c0-1.43.572-2.704 1.535-3.666.963-.962 2.235-1.535 3.666-1.535h218.4c1.43 0 2.704.572 3.666 1.535.961.963 1.534 2.235 1.534 3.666v115.7h-228.8V20.8Zm227.267 222.067c-.962.961-2.237 1.534-3.666 1.534h-218.4c-1.43 0-2.704-.572-3.666-1.534-.962-.963-1.535-2.237-1.535-3.666v-94.9h228.8v94.9c0 1.43-.572 2.704-1.534 3.666h.001Z"/></g></svg>
